X:1
T:Parker, CM
T:Parker, CM
T:Karl Pomeroy Harrington, 1905
T:Public Domain Courtesy of the Cyber Hymnal™
C:Karl Pomeroy Harrington, 1905
Z:Public Domain
Z:Courtesy of the Cyber Hymnal™
%%score ( 1 2 ) ( 3 4 )
L:1/8
Q:1/4=130
M:3/4
K:Ab
V:1 treble 
V:2 treble 
V:3 bass 
V:4 bass 
V:1
 [Ec]2 | [DB]4 [CA]2 | [CE]4 [CF]2 | [DG]4 [D^F]2 | [DG]4 [DA]2 | [DB]4 [^F=A]2 | [GB]4 [G=B]2 | %7
 [Ac]4 [Ec]2 | [Ec]4 [Ec]2 | [Ef]4 [Fc]2 | [_Ge]4 [Fd]2 | [_FA]4 [AB]2 | (c2 d2) [Ac]2 | %13
 [Gc]4 [GB]2 | A4 |] %15
V:2
 x2 | x6 | x6 | x6 | x6 | x6 | x6 | x6 | x6 | x6 | x6 | x6 | A4 x2 | x6 | A4 |] %15
V:3
 [A,,A,]2 | [A,,E,]4 [A,,E,]2 | [G,,A,]4 [G,,E,]2 | [B,,E,]4 [=A,,E,]2 | [B,,E,]4 [B,,F,]2 | %5
 [E,G,]4 [E,C]2 | [E,D]4 [E,D]2 | [A,C]4 A,2 | A,4 [_G,B,]2 | [F,=A,]4 [A,C]2 | [B,C]4 [B,D]2 | %11
 D4 [D,_F]2 | (E2 F2) [E,E]2 | [E,E]4 [E,D]2 | [A,C]4 |] %15
V:4
 x2 | x6 | x6 | x6 | x6 | x6 | x6 | x4 A,2 | A,4 x2 | x6 | x6 | D4 x2 | E,4 x2 | x6 | x4 |] %15

